src/actions/32/mail-queue.svg

<svg xmlns="http://www.w3.org/2000/svg" viewBox="0 0 32 32">
  <defs id="defs3051">
    <style type="text/css" id="current-color-scheme">
      .ColorScheme-Text {
        color:#2e3440;
      }
      </style>
  </defs>
 <path 
     style="fill:currentColor;fill-opacity:1;stroke:none" 
     d="M 2,5 2,24.683594 2,27 17,27 17,26 3,26 3,25.111328 3.4296875,24.683594 12.785156,15.541016 16,18.683594 C 16,18.683594 29,6 28.976562,6 L 29,6 l 0,8 1,0 0,-9 z M 3,6 3.0234375,6 12.070312,14.841797 3,23.707031 Z M 4.453125,6 27.546875,6 16,17.285156 Z M 24,15 c -3.313708,0 -6,2.686291 -6,6 0,3.313708 2.686292,6 6,6 3.313708,0 6,-2.686292 6,-6 0,-3.313709 -2.686292,-6 -6,-6 z m 0,1 c 2.761424,0 5,2.238576 5,5 0,2.761424 -2.238576,5 -5,5 -2.761423,0 -5,-2.238576 -5,-5 0,-2.761424 2.238577,-5 5,-5 z m -1,1 0,4 0,1 5,0 0,-1 -4,0 0,-4 z"
     class="ColorScheme-Text"
     />
</svg>

<svg viewBox="0 0 32 32" xmlns="http://www.w3.org/2000/svg">
 <defs>
  <style type="text/css">.ColorScheme-Text {
        color:#2e3440;
      }</style>
 </defs>
 <path class="ColorScheme-Text" d="m2 5v19.684 2.3164h15v-1h-14v-0.88867l0.42969-0.42773 9.3555-9.1426 3.2148 3.1426s13-12.684 12.977-12.684h0.023438v8h1v-9zm1 1h0.023438l9.0469 8.8418-9.0703 8.8652zm1.4531 0h23.094l-11.547 11.285zm19.547 9c-3.3137 0-6 2.6863-6 6 0 3.3137 2.6863 6 6 6s6-2.6863 6-6c0-3.3137-2.6863-6-6-6zm0 1c2.7614 0 5 2.2386 5 5s-2.2386 5-5 5c-2.7614 0-5-2.2386-5-5s2.2386-5 5-5zm-1 1v4 1h5v-1h-4v-4z" fill="currentColor"/>
</svg>
